X:1
T:Title
%%score 1 2
L:1/8
Q:1/4=80
M:3/4
K:Eb
V:1 treble nm="Strings 1, Soprano"
V:2 bass nm="Strings 1, Bass"
V:1
 z2 z2 [EB]>[EB] | [EB]3 E [EG]>[DF] | [B,E]3 [GB] [Ac]>[Ac] | [Ac]3 [GB] [Ge]>[Ec] | [EB]3 G E>C | %5
w: 1.~Oh,~ the~|cross!~ the~ pre cious~|cross!~ 'Twas~ there~ I~|count ed~ all~ but~|loss;~ 'Twas~ there~ I~|
 E3 B, [B,E]>[DF] | [EG]3 G E>C | E3 B, [B,E]>[DF] | [EG]3 [GB] [Ac]>[Ac] | [Ac]3 [Ae] [GB]>[GB] | %10
w: gave~ my~ heart~ to~|God,~ 'Twas~ there~ He~|washed~ me~ in~ His~|blood,~ And~ spake~ the~|words,~ "Thy~ sins~ for|
 [EG]3 [B,F] E>[EF] | [EG]3 [B,E] [B,F]>[B,E] | [B,E]4 z2 |] %13
w: giv'n,"~ And~ filled~ my~|soul~ with~ peace~ from~|heav'n.~|
V:2
 z2 z2 [E,G,]>[E,G,] | [E,G,]3 [E,G,] [B,,B,]>[B,,A,] | [E,G,]3 [E,E] [A,E]>[A,E] | %3
 [E,E]3 [E,E] [E,B,]>[E,A,] | [E,G,]3 G, E,>C, | E,3 [B,,G,] [G,,B,]>[B,,B,] | [E,B,]3 G, E,>C, | %7
 E,3 [B,,G,] [G,,B,]>[B,,B,] | [E,B,]3 [E,E] [A,E]>[A,E] | [A,E]3 [A,,C] [E,E]>[E,E] | %10
 [E,B,]3 [B,,A,] [C,G,]>[C,=A,] | [B,,B,]3 [B,,G,] [B,,A,]>[E,G,] | [E,G,]4 z2 |] %13

